brandFactory_export/3.Masa/Flecha arriba_3Masa.svg

<?xml version="1.0" encoding="UTF-8"?>
<svg width="24px" height="24px" viewBox="0 0 24 24" version="1.1" xmlns="http://www.w3.org/2000/svg" xmlns:xlink="http://www.w3.org/1999/xlink">
    <title>3.Masa/Flecha arriba_3Masa</title>
    <g id="Symbols" stroke="none" stroke-width="1" fill="none" fill-rule="evenodd">
        <g id="3.Masa/Flecha-arriba_3Masa" fill="#5CB615" fill-rule="nonzero">
            <path d="M23.6403361,11.8151261 C23.6403361,11.9966387 23.6067227,12.1747899 23.5394958,12.3428571 C23.3277311,12.8638655 22.8168067,13.1831933 22.2117647,13.1764706 L17.8319328,13.1798319 C17.8084034,13.1932773 17.7848739,13.2067227 17.7647059,13.2268908 L17.7411765,21.4857143 C17.7512605,22.2252101 17.5663866,22.7697479 17.1798319,23.1462185 C16.7932773,23.5226891 16.2487395,23.697479 15.5092437,23.6773109 L8.25882353,23.6773109 C7.75462185,23.687395 7.02857143,23.6403361 6.52436975,23.1529412 C6.02016807,22.6655462 5.94957983,21.9428571 5.9394958,21.4420168 L5.9394958,21.4319328 L5.94285714,13.3781513 C5.93277311,13.3109244 5.91260504,13.2504202 5.8789916,13.189916 L1.60336134,13.1966387 L1.59663866,13.1966387 C0.568067227,13.189916 0.218487395,12.6991597 0.100840336,12.4067227 C-0.100840336,11.9058824 0.0840336134,11.3277311 0.605042017,10.8201681 L11.0588235,0.430252101 C11.1596639,0.32605042 11.4554622,0.0268907563 11.8857143,0.0302240037 C12.0672269,0.0302240037 12.3394958,0.0907563025 12.5983193,0.359663866 L23.0420168,10.5378151 C23.4319328,10.897479 23.6403361,11.3647059 23.6403361,11.8151261 Z" id="Path"></path>
        </g>
    </g>
</svg>

<svg width="24" height="24" viewBox="0 0 24 24" xmlns="http://www.w3.org/2000/svg"><path d="M23.64 11.815c0 .182-.033.36-.1.528-.212.52-.723.84-1.328.833l-4.38.004c-.024.013-.047.027-.067.047l-.024 8.259c.01.74-.175 1.284-.561 1.66-.387.377-.931.551-1.67.531H8.258c-.504.01-1.23-.037-1.735-.524-.504-.487-.574-1.21-.585-1.711v-.01l.004-8.054a.543.543 0 00-.064-.188l-4.276.007h-.006C.568 13.19.218 12.699.1 12.407c-.202-.501-.017-1.08.504-1.587L11.059.43c.1-.104.396-.403.827-.4.181 0 .453.06.712.33l10.444 10.178c.39.36.598.827.598 1.277z" fill="#5CB615" fill-rule="nonzero"/></svg>
